teeny/outline/globe-africa.svg

<svg width="15" height="15" viewBox="0 0 15 15" fill="none" xmlns="http://www.w3.org/2000/svg">
<path d="M7.5 1H8C8 0.810614 7.893 0.637482 7.72361 0.552786L7.5 1ZM7.5 2L7.72361 2.44721C7.893 2.36252 8 2.18939 8 2H7.5ZM6.5 2.5L6.27639 2.05279C6.11697 2.1325 6.01204 2.29104 6.00097 2.46893C5.98989 2.64682 6.07435 2.81716 6.22265 2.91603L6.5 2.5ZM8 3.5L7.72265 3.91603C7.80478 3.97078 7.90129 4 8 4V3.5ZM8.5 3.5V4C8.77614 4 9 3.77614 9 3.5H8.5ZM8.5 2.5V2C8.22386 2 8 2.22386 8 2.5H8.5ZM10 2.5H10.5C10.5 2.22386 10.2761 2 10 2V2.5ZM10 3.5H9.5C9.5 3.63261 9.55268 3.75979 9.64645 3.85355L10 3.5ZM10.5 4H11C11 3.86739 10.9473 3.74021 10.8536 3.64645L10.5 4ZM10.5 5L10.8536 5.35355C10.9473 5.25979 11 5.13261 11 5H10.5ZM10 5.5V6C10.1326 6 10.2598 5.94732 10.3536 5.85355L10 5.5ZM9 5.5L8.77639 5.94721C8.84582 5.98193 8.92238 6 9 6V5.5ZM7 4.5L7.22361 4.05279C7.08284 3.9824 6.91716 3.9824 6.77639 4.05279L7 4.5ZM6 5V5.5C6.07762 5.5 6.15418 5.48193 6.22361 5.44721L6 5ZM4.5 5V4.5C4.27057 4.5 4.07057 4.65615 4.01493 4.87873L4.5 5ZM4 7L3.51493 6.87873C3.47233 7.04912 3.52226 7.22936 3.64645 7.35355L4 7ZM5.5 8.5L5.14645 8.85355C5.18445 8.89155 5.22833 8.92318 5.27639 8.94721L5.5 8.5ZM6.5 9H7C7 8.81061 6.893 8.63748 6.72361 8.55279L6.5 9ZM6.5 10.5H6C6 10.6326 6.05268 10.7598 6.14645 10.8536L6.5 10.5ZM7 11H7.5C7.5 10.8674 7.44732 10.7402 7.35355 10.6464L7 11ZM7 12H6.5C6.5 12.0776 6.51807 12.1542 6.55279 12.2236L7 12ZM7.5 13L7.05279 13.2236C7.13748 13.393 7.31061 13.5 7.5 13.5V13ZM8.5 13V13.5C8.66718 13.5 8.82329 13.4164 8.91603 13.2774L8.5 13ZM9.5 11.5L9.91603 11.7774C9.92753 11.7601 9.93794 11.7422 9.94721 11.7236L9.5 11.5ZM10 10.5L10.4472 10.7236C10.4819 10.6542 10.5 10.5776 10.5 10.5H10ZM10 9.5L9.6 9.2C9.53509 9.28655 9.5 9.39182 9.5 9.5H10ZM11.5 7.5L11.9 7.8C12.0136 7.64849 12.0319 7.44579 11.9472 7.27639L11.5 7.5ZM11 6.5V6C10.8267 6 10.6658 6.08973 10.5747 6.23713C10.4836 6.38454 10.4753 6.56861 10.5528 6.72361L11 6.5ZM12.5 6.5V7C12.7761 7 13 6.77614 13 6.5H12.5ZM12.5 5.5V5C12.2239 5 12 5.22386 12 5.5H12.5ZM7.5 14C3.91015 14 1 11.0899 1 7.5H0C0 11.6421 3.35786 15 7.5 15V14ZM14 7.5C14 11.0899 11.0899 14 7.5 14V15C11.6421 15 15 11.6421 15 7.5H14ZM7.5 1C11.0899 1 14 3.91015 14 7.5H15C15 3.35786 11.6421 0 7.5 0V1ZM7.5 0C3.35786 0 0 3.35786 0 7.5H1C1 3.91015 3.91015 1 7.5 1V0ZM6.27639 0.947214L7.27639 1.44721L7.72361 0.552786L6.72361 0.0527864L6.27639 0.947214ZM7 1V2H8V1H7ZM7.27639 1.55279L6.27639 2.05279L6.72361 2.94721L7.72361 2.44721L7.27639 1.55279ZM6.22265 2.91603L7.72265 3.91603L8.27735 3.08397L6.77735 2.08397L6.22265 2.91603ZM8 4H8.5V3H8V4ZM9 3.5V2.5H8V3.5H9ZM8.5 3H10V2H8.5V3ZM9.5 2.5V3.5H10.5V2.5H9.5ZM9.64645 3.85355L10.1464 4.35355L10.8536 3.64645L10.3536 3.14645L9.64645 3.85355ZM10 4V5H11V4H10ZM10.1464 4.64645L9.64645 5.14645L10.3536 5.85355L10.8536 5.35355L10.1464 4.64645ZM10 5H9V6H10V5ZM9.22361 5.05279L7.22361 4.05279L6.77639 4.94721L8.77639 5.94721L9.22361 5.05279ZM6.77639 4.05279L5.77639 4.55279L6.22361 5.44721L7.22361 4.94721L6.77639 4.05279ZM6 4.5H4.5V5.5H6V4.5ZM4.01493 4.87873L3.51493 6.87873L4.48507 7.12127L4.98507 5.12127L4.01493 4.87873ZM3.64645 7.35355L5.14645 8.85355L5.85355 8.14645L4.35355 6.64645L3.64645 7.35355ZM5.27639 8.94721L6.27639 9.44721L6.72361 8.55279L5.72361 8.05279L5.27639 8.94721ZM6 9V10.5H7V9H6ZM6.14645 10.8536L6.64645 11.3536L7.35355 10.6464L6.85355 10.1464L6.14645 10.8536ZM6.5 11V12H7.5V11H6.5ZM6.55279 12.2236L7.05279 13.2236L7.94721 12.7764L7.44721 11.7764L6.55279 12.2236ZM7.5 13.5H8.5V12.5H7.5V13.5ZM8.91603 13.2774L9.91603 11.7774L9.08397 11.2226L8.08397 12.7226L8.91603 13.2774ZM9.94721 11.7236L10.4472 10.7236L9.55279 10.2764L9.05279 11.2764L9.94721 11.7236ZM10.5 10.5V9.5H9.5V10.5H10.5ZM10.4 9.8L11.9 7.8L11.1 7.2L9.6 9.2L10.4 9.8ZM11.9472 7.27639L11.4472 6.27639L10.5528 6.72361L11.0528 7.72361L11.9472 7.27639ZM11 7H12.5V6H11V7ZM13 6.5V5.5H12V6.5H13ZM12.5 6H14.5V5H12.5V6Z" fill="black"/>
</svg>

<svg viewBox="0 0 15 15" xmlns="http://www.w3.org/2000/svg"><path d="M7.5 1H8c0-.19-.11-.37-.28-.45l-.23.44Zm0 1l.22.44c.16-.09.27-.26.27-.45h-.5Zm-1 .5l-.23-.45c-.16.07-.27.23-.28.41 -.02.17.07.34.22.44l.27-.42Zm1.5 1l-.28.41c.08.05.17.08.27.08v-.5Zm.5 0V4c.27 0 .5-.23.5-.5h-.5Zm0-1V2c-.28 0-.5.22-.5.5h.5Zm1.5 0h.5c0-.28-.23-.5-.5-.5v.5Zm0 1h-.5c0 .13.05.25.14.35l.35-.36Zm.5.5h.5c0-.14-.06-.26-.15-.36l-.36.35Zm0 1l.35.35c.09-.1.14-.23.14-.36h-.5Zm-.5.5V6c.13 0 .25-.06.35-.15l-.36-.36Zm-1 0l-.23.44c.06.03.14.05.22.05v-.5Zm-2-1l.22-.45c-.15-.08-.31-.08-.45 0l.22.44ZM6 5v.5c.07 0 .15-.02.22-.06l-.23-.45ZM4.5 5v-.5c-.23 0-.43.15-.49.37l.48.12ZM4 7l-.49-.13c-.05.17 0 .35.13.47l.35-.36Zm1.5 1.5l-.36.35c.03.03.08.06.12.09l.22-.45Zm1 .5H7c0-.19-.11-.37-.28-.45l-.23.44Zm0 1.5H6c0 .13.05.25.14.35l.35-.36Zm.5.5h.5c0-.14-.06-.26-.15-.36l-.36.35Zm0 1h-.5c0 .07.01.15.05.22l.44-.23Zm.5 1l-.45.22c.08.16.25.27.44.27v-.5Zm1 0v.5c.16 0 .32-.09.41-.23l-.42-.28Zm1-1.5l.41.27c.01-.02.02-.04.03-.06l-.45-.23Zm.5-1l.44.22c.03-.07.05-.15.05-.23h-.5Zm0-1l-.4-.3c-.07.08-.1.19-.1.3h.5Zm1.5-2l.4.3c.11-.16.13-.36.04-.53l-.45.22Zm-.5-1V6c-.18 0-.34.08-.43.23 -.1.14-.1.33-.03.48l.44-.23Zm1.5 0V7c.27 0 .5-.23.5-.5h-.5Zm0-1V5c-.28 0-.5.22-.5.5h.5Zm-5 8.5C3.91 14 1 11.08 1 7.5H0C0 11.64 3.35 15 7.5 15v-1ZM14 7.5c0 3.58-2.92 6.5-6.5 6.5v1c4.14 0 7.5-3.36 7.5-7.5h-1ZM7.5 1C11.08 1 14 3.91 14 7.5h1C15 3.35 11.64 0 7.5 0v1Zm0-1C3.35 0 0 3.35 0 7.5h1C1 3.91 3.91 1 7.5 1V0ZM6.27.94l1 .49 .44-.9 -1-.5 -.45.89Zm.72.05v1h1v-1h-1Zm.27.55l-1 .5 .44.89 1-.5 -.45-.9ZM6.2 2.9l1.5 1 .55-.84 -1.5-1 -.56.83Zm1.77 1.08h.5v-1h-.5v1Zm1-.5v-1h-1v1h1Zm-.5-.5h1.5v-1h-1.5v1Zm1-.5v1h1v-1h-1Zm.14 1.35l.49.5 .7-.71 -.5-.5 -.71.7Zm.35.14v1h1v-1h-1Zm.14.64l-.5.5 .7.7 .5-.5 -.71-.71Zm-.15.35h-1v1h1v-1Zm-.78.05l-2-1 -.45.89 2 1 .44-.9Zm-2.45-1l-1 .5 .44.89 1-.5 -.45-.9Zm-.78.44h-1.5v1h1.5v-1Zm-1.99.37l-.5 2 .97.24 .5-2 -.98-.25Zm-.37 2.47l1.5 1.5 .7-.71 -1.5-1.5 -.71.7ZM5.2 8.88l1 .5 .44-.9 -1-.5 -.45.89Zm.72.05v1.5h1v-1.5h-1Zm.14 1.85l.5.5 .7-.71 -.5-.5 -.71.7Zm.35.14v1h1v-1h-1Zm.05 1.22l.5 1 .89-.45 -.5-1 -.9.44Zm.94 1.27h1v-1h-1v1Zm1.41-.23l1-1.5 -.84-.56 -1 1.5 .83.55Zm1.03-1.56l.49-1 -.9-.45 -.5 1 .89.44Zm.55-1.23v-1h-1v1h1Zm-.1-.7l1.5-2 -.8-.6 -1.5 2 .8.6Zm1.54-2.53l-.5-1 -.9.44 .5 1 .89-.45Zm-.95-.28h1.5v-1h-1.5v1Zm2-.5v-1h-1v1h1Zm-.5-.5h2v-1h-2v1Z"/></svg>
